; generated by Slic3r 0.9.10b on 2013-10-22 at 16:56:52

; Perfil feito por rsilva em 20/0/13
; Baseado no MM_025_FAST, porém bem modificado e com a velocidade reduzida.

; layer_height = 0.25
; perimeters = 2
; top_solid_layers = 4
; bottom_solid_layers = 2
; fill_density = 0.3
; perimeter_speed = 60
; infill_speed = 60
; travel_speed = 70
; nozzle_diameter = 0.35
; filament_diameter = 2.88
; extrusion_multiplier = 0.98
; perimeters extrusion width = 0.39mm
; infill extrusion width = 0.47mm
; solid infill extrusion width = 0.39mm
; top infill extrusion width = 0.39mm
; first layer extrusion width = 0.48mm

G21 ; set units to millimeters
M107
M140 S105 ; set bed temp, don't wait
M104 S240 ; set heater temp, don't wait
G0 X10 Y10 Z10 F7000
G28 X0 Y0
G0 Z3 F300
G0 Z0 F75
M190 S105 ; wait for bed temp
M109 S240 ; set heater temp and wait
M908 P3 S110 ; set motor current to a safe level. In the next host release we'll remove this command from startgcode
G92 E0 ; reset extruder length
G90 ; use absolute coordinates
M83 ; use relative distances for extrusion
G1 Z0.300 F4200.000
G1 F1800.000 E-2.00000
G1 X56.000 Y88.880 F4200.000
G1 F1800.000 E2.00000
G1 X56.700 Y88.440 F1200.000 E0.01687
G1 X77.370 Y76.450 E0.48756
G1 X78.300 Y75.930 E0.02174
G1 X78.990 Y75.580 E0.01579
G1 X79.950 Y75.130 E0.02163
G1 X80.850 Y74.750 E0.01993
G1 X81.840 Y74.390 E0.02149
G1 X82.590 Y74.150 E0.01607
G1 X83.610 Y73.860 E0.02164
G1 X84.430 Y73.660 E0.01722
G1 X85.470 Y73.450 E0.02165
G1 X86.470 Y73.300 E0.02063
G1 X87.590 Y73.180 E0.02298
G1 X88.750 Y73.120 E0.02370
G1 X111.250 Y73.120 E0.45908
G1 X112.420 Y73.180 E0.02390
G1 X113.530 Y73.300 E0.02278
G1 X114.520 Y73.450 E0.02043
G1 X115.560 Y73.660 E0.02165
G1 X116.380 Y73.860 E0.01722
G1 X117.400 Y74.150 E0.02164
G1 X118.150 Y74.390 E0.01607
G1 X119.140 Y74.750 E0.02149
G1 X120.040 Y75.130 E0.01993
G1 X121.000 Y75.580 E0.02163
G1 X121.690 Y75.930 E0.01579
G1 X122.620 Y76.450 E0.02174
G1 X143.290 Y88.440 E0.48756
G1 X143.990 Y88.880 E0.01687
G1 X144.920 Y89.540 E0.02327
G1 X145.250 Y89.800 E0.00857
G1 X145.950 Y90.410 E0.01894
G1 X146.770 Y91.210 E0.02337
G1 X147.670 Y92.220 E0.02760
G1 X147.930 Y92.550 E0.00857
G1 X148.590 Y93.480 E0.02327
G1 X149.290 Y94.640 E0.02764
G1 X149.810 Y95.660 E0.02336
G1 X150.310 Y96.890 E0.02709
G1 X150.610 Y97.800 E0.01955
G1 X150.950 Y99.130 E0.02801
G1 X151.160 Y100.340 E0.02506
G1 X151.210 Y100.760 E0.00863
G1 X151.280 Y101.800 E0.02127
G1 X151.280 Y103.160 E0.02775
G1 X151.210 Y104.190 E0.02106
G1 X151.040 Y105.360 E0.02412
G1 X150.960 Y105.780 E0.00872
G1 X150.720 Y106.800 E0.02138
G1 X150.600 Y107.210 E0.00872
G1 X150.310 Y108.060 E0.01832
G1 X149.980 Y108.900 E0.01841
G1 X149.810 Y109.290 E0.00868
G1 X149.290 Y110.310 E0.02336
G1 X148.590 Y111.470 E0.02764
G1 X148.350 Y111.820 E0.00866
G1 X147.670 Y112.730 E0.02318
G1 X147.060 Y113.430 E0.01894
G1 X146.080 Y114.430 E0.02857
G1 X145.080 Y115.280 E0.02678
G1 X144.750 Y115.530 E0.00845
G1 X143.990 Y116.070 E0.01902
G1 X143.200 Y116.560 E0.01897
G1 X142.830 Y116.770 E0.00868
G1 X141.810 Y117.290 E0.02336
G1 X141.420 Y117.460 E0.00868
G1 X140.630 Y117.760 E0.01724
G1 X117.990 Y125.610 E0.48892
G1 X117.400 Y125.800 E0.01265
G1 X116.380 Y126.090 E0.02164
G1 X115.560 Y126.290 E0.01722
G1 X114.520 Y126.500 E0.02165
G1 X113.590 Y126.640 E0.01919
G1 X112.530 Y126.760 E0.02177
G1 X111.820 Y126.820 E0.01454
G1 X110.770 Y126.870 E0.02145
G1 X89.750 Y126.880 E0.42889
G1 X88.180 Y126.820 E0.03206
G1 X87.460 Y126.760 E0.01474
G1 X86.400 Y126.640 E0.02177
G1 X85.470 Y126.500 E0.01919
G1 X84.430 Y126.290 E0.02165
G1 X83.610 Y126.090 E0.01722
G1 X82.590 Y125.800 E0.02164
G1 X82.000 Y125.610 E0.01265
G1 X59.360 Y117.760 E0.48892
G1 X58.570 Y117.460 E0.01724
G1 X58.180 Y117.290 E0.00868
G1 X57.160 Y116.770 E0.02336
G1 X56.790 Y116.560 E0.00868
G1 X56.000 Y116.070 E0.01897
G1 X55.070 Y115.410 E0.02327
G1 X54.740 Y115.150 E0.00857
G1 X53.850 Y114.370 E0.02415
G1 X53.080 Y113.600 E0.02222
G1 X52.320 Y112.730 E0.02357
G1 X52.060 Y112.400 E0.00857
G1 X51.400 Y111.470 E0.02327
G1 X50.910 Y110.680 E0.01897
G1 X50.700 Y110.310 E0.00868
G1 X50.180 Y109.290 E0.02336
G1 X49.800 Y108.370 E0.02031
G1 X49.420 Y107.270 E0.02375
G1 X49.300 Y106.870 E0.00852
G1 X49.030 Y105.780 E0.02291
G1 X48.830 Y104.610 E0.02422
G1 X48.780 Y104.190 E0.00863
G1 X48.710 Y103.160 E0.02106
G1 X48.700 Y102.740 E0.00857
G1 X48.710 Y101.800 E0.01918
G1 X48.780 Y100.760 E0.02127
G1 X48.960 Y99.540 E0.02516
G1 X49.270 Y98.160 E0.02886
G1 X49.390 Y97.750 E0.00872
G1 X49.800 Y96.580 E0.02530
G1 X50.230 Y95.580 E0.02221
G1 X50.640 Y94.760 E0.01871
G1 X50.850 Y94.380 E0.00886
G1 X51.400 Y93.480 E0.02152
G1 X52.060 Y92.550 E0.02327
G1 X52.320 Y92.220 E0.00857
G1 X53.220 Y91.210 E0.02760
G1 X54.040 Y90.410 E0.02337
G1 X54.740 Y89.800 E0.01894
G1 X55.070 Y89.540 E0.00857
G1 X55.944 Y88.918 E0.02188
G1 X56.260 Y89.250 F4200.000
G1 X56.930 Y88.830 F1200.000 E0.01613
G1 X77.450 Y76.930 E0.48399
G1 X78.520 Y76.330 E0.02503
G1 X79.180 Y75.990 E0.01515
G1 X80.140 Y75.540 E0.02163
G1 X81.010 Y75.180 E0.01921
G1 X82.000 Y74.820 E0.02149
G1 X82.710 Y74.590 E0.01523
G1 X83.730 Y74.300 E0.02164
G1 X84.520 Y74.100 E0.01663
G1 X85.560 Y73.890 E0.02165
G1 X86.520 Y73.750 E0.01979
G1 X87.640 Y73.630 E0.02298
G1 X88.750 Y73.570 E0.02268
G1 X111.250 Y73.570 E0.45908
G1 X112.370 Y73.630 E0.02288
G1 X113.480 Y73.750 E0.02278
G1 X114.430 Y73.890 E0.01959
G1 X115.470 Y74.100 E0.02165
G1 X116.260 Y74.300 E0.01663
G1 X117.280 Y74.590 E0.02164
G1 X117.990 Y74.820 E0.01523
G1 X118.980 Y75.180 E0.02149
G1 X119.850 Y75.540 E0.01921
G1 X120.810 Y75.990 E0.02163
G1 X121.470 Y76.330 E0.01515
G1 X122.540 Y76.930 E0.02503
G1 X143.060 Y88.830 E0.48399
G1 X143.730 Y89.250 E0.01613
G1 X144.640 Y89.900 E0.02282
G1 X144.970 Y90.160 E0.00857
G1 X145.640 Y90.740 E0.01808
G1 X146.440 Y91.520 E0.02280
G1 X147.310 Y92.500 E0.02674
G1 X147.570 Y92.830 E0.00857
G1 X148.220 Y93.740 E0.02282
G1 X148.690 Y94.490 E0.01806
G1 X148.900 Y94.860 E0.00868
G1 X149.390 Y95.840 E0.02236
G1 X149.890 Y97.050 E0.02671
G1 X150.180 Y97.930 E0.01891
G1 X150.510 Y99.220 E0.02717
G1 X150.710 Y100.390 E0.02422
G1 X150.760 Y100.810 E0.00863
G1 X150.830 Y101.810 E0.02045
G1 X150.830 Y103.150 E0.02734
G1 X150.760 Y104.140 E0.02025
G1 X150.600 Y105.280 E0.02349
G1 X150.520 Y105.700 E0.00872
G1 X150.280 Y106.680 E0.02059
G1 X149.890 Y107.900 E0.02613
G1 X149.740 Y108.290 E0.00853
G1 X149.390 Y109.110 E0.01819
G1 X148.900 Y110.090 E0.02236
G1 X148.690 Y110.460 E0.00868
G1 X147.980 Y111.560 E0.02671
G1 X147.310 Y112.450 E0.02273
G1 X146.730 Y113.120 E0.01808
G1 X145.770 Y114.100 E0.02799
G1 X144.810 Y114.920 E0.02576
G1 X144.480 Y115.170 E0.00845
G1 X143.730 Y115.700 E0.01874
G1 X142.980 Y116.170 E0.01806
G1 X142.610 Y116.380 E0.00868
G1 X141.630 Y116.870 E0.02236
G1 X140.480 Y117.340 E0.02535
G1 X117.840 Y125.190 E0.48892
G1 X116.260 Y125.650 E0.03358
G1 X115.470 Y125.850 E0.01663
G1 X114.430 Y126.060 E0.02165
G1 X113.540 Y126.200 E0.01838
G1 X112.480 Y126.320 E0.02177
G1 X110.750 Y126.420 E0.03536
G1 X89.750 Y126.430 E0.42848
G1 X88.200 Y126.370 E0.03165
G1 X87.510 Y126.320 E0.01412
G1 X86.450 Y126.200 E0.02177
G1 X85.560 Y126.060 E0.01838
G1 X84.520 Y125.850 E0.02165
G1 X83.730 Y125.650 E0.01663
G1 X82.150 Y125.190 E0.03358
G1 X59.510 Y117.340 E0.48892
G1 X58.750 Y117.040 E0.01667
G1 X58.360 Y116.870 E0.00868
G1 X57.380 Y116.380 E0.02236
G1 X57.010 Y116.170 E0.00868
G1 X56.260 Y115.700 E0.01806
G1 X55.350 Y115.050 E0.02282
G1 X55.020 Y114.790 E0.00857
G1 X54.150 Y114.030 E0.02357
G1 X53.410 Y113.300 E0.02121
G1 X52.680 Y112.450 E0.02286
G1 X52.420 Y112.120 E0.00857
G1 X51.770 Y111.210 E0.02282
G1 X51.300 Y110.460 E0.01806
G1 X51.090 Y110.090 E0.00868
G1 X50.600 Y109.110 E0.02236
G1 X50.220 Y108.210 E0.01993
G1 X50.070 Y107.810 E0.00872
G1 X49.730 Y106.740 E0.02291
G1 X49.470 Y105.700 E0.02187
G1 X49.390 Y105.280 E0.00872
G1 X49.230 Y104.140 E0.02349
G1 X49.160 Y103.150 E0.02025
G1 X49.150 Y102.240 E0.01857
G1 X49.160 Y101.810 E0.00878
G1 X49.230 Y100.810 E0.02045
G1 X49.280 Y100.390 E0.00863
G1 X49.480 Y99.220 E0.02422
G1 X49.710 Y98.280 E0.01975
G1 X50.070 Y97.140 E0.02439
G1 X50.470 Y96.140 E0.02198
G1 X51.030 Y94.970 E0.02647
G1 X51.240 Y94.590 E0.00886
G1 X51.770 Y93.740 E0.02044
G1 X52.420 Y92.830 E0.02282
G1 X52.680 Y92.500 E0.00857
G1 X53.550 Y91.520 E0.02674
G1 X54.350 Y90.740 E0.02280
G1 X55.020 Y90.160 E0.01808
G1 X55.350 Y89.900 E0.00857
G1 X56.204 Y89.288 E0.02143
G1 F1800.000 E-2.00000
G1 X63.705 Y100.367 F4200.000
G1 F1800.000 E2.00000
G1 X64.052 Y100.190 F1200.000 E0.00794
G1 X64.421 Y100.070 E0.00793
G1 X64.612 Y100.032 E0.00397
G1 X65.000 Y100.002 E0.00794
G1 X65.388 Y100.032 E0.00794
G1 X65.579 Y100.070 E0.00397
G1 X65.766 Y100.123 E0.00397
G1 X66.125 Y100.272 E0.00794
G1 X66.457 Y100.475 E0.00794
G1 X66.753 Y100.728 E0.00794
G1 X66.885 Y100.871 E0.00397
G1 X67.113 Y101.185 E0.00793
G1 X67.290 Y101.532 E0.00794
G1 X67.410 Y101.902 E0.00794
G1 X67.448 Y102.093 E0.00397
G1 X67.471 Y102.286 E0.00397
G1 X67.471 Y102.675 E0.00794
G1 X67.410 Y103.059 E0.00793
G1 X67.290 Y103.429 E0.00794
G1 X67.113 Y103.775 E0.00794
G1 X67.005 Y103.937 E0.00397
G1 X66.753 Y104.233 E0.00793
G1 X66.610 Y104.365 E0.00397
G1 X66.295 Y104.594 E0.00793
G1 X65.948 Y104.770 E0.00794
G1 X65.579 Y104.891 E0.00793
G1 X65.388 Y104.929 E0.00397
G1 X65.000 Y104.959 E0.00794
G1 X64.612 Y104.929 E0.00794
G1 X64.421 Y104.891 E0.00397
G1 X64.234 Y104.838 E0.00397
G1 X63.875 Y104.689 E0.00794
G1 X63.543 Y104.486 E0.00794
G1 X63.247 Y104.233 E0.00794
G1 X63.115 Y104.090 E0.00397
G1 X62.887 Y103.775 E0.00794
G1 X62.710 Y103.429 E0.00794
G1 X62.590 Y103.059 E0.00794
G1 X62.552 Y102.868 E0.00397
G1 X62.529 Y102.675 E0.00397
G1 X62.529 Y102.286 E0.00794
G1 X62.590 Y101.902 E0.00793
G1 X62.710 Y101.532 E0.00794
G1 X62.887 Y101.185 E0.00794
G1 X62.995 Y101.023 E0.00397
G1 X63.247 Y100.728 E0.00793
G1 X63.390 Y100.596 E0.00397
G1 X63.648 Y100.405 E0.00655
G1 X63.941 Y100.753 F4200.000
G1 X64.225 Y100.608 F1200.000 E0.00649
G1 X64.683 Y100.479 E0.00972
G1 X65.000 Y100.454 E0.00649
G1 X65.473 Y100.510 E0.00972
G1 X65.920 Y100.675 E0.00972
G1 X66.191 Y100.841 E0.00649
G1 X66.433 Y101.048 E0.00649
G1 X66.728 Y101.422 E0.00972
G1 X66.872 Y101.705 E0.00649
G1 X66.970 Y102.007 E0.00649
G1 X67.001 Y102.163 E0.00325
G1 X67.020 Y102.321 E0.00325
G1 X67.020 Y102.639 E0.00649
G1 X66.970 Y102.953 E0.00649
G1 X66.872 Y103.256 E0.00649
G1 X66.728 Y103.539 E0.00649
G1 X66.639 Y103.671 E0.00325
G1 X66.433 Y103.913 E0.00649
G1 X66.059 Y104.208 E0.00972
G1 X65.775 Y104.352 E0.00649
G1 X65.317 Y104.482 E0.00972
G1 X65.000 Y104.507 E0.00649
G1 X64.527 Y104.451 E0.00972
G1 X64.080 Y104.286 E0.00972
G1 X63.809 Y104.120 E0.00649
G1 X63.567 Y103.913 E0.00649
G1 X63.272 Y103.539 E0.00972
G1 X63.128 Y103.256 E0.00649
G1 X63.030 Y102.953 E0.00649
G1 X62.999 Y102.797 E0.00325
G1 X62.980 Y102.639 E0.00325
G1 X62.980 Y102.321 E0.00649
G1 X63.030 Y102.007 E0.00649
G1 X63.128 Y101.705 E0.00649
G1 X63.272 Y101.422 E0.00649
G1 X63.361 Y101.289 E0.00325
G1 X63.567 Y101.048 E0.00649
G1 X63.885 Y100.790 E0.00834
G1 X64.219 Y100.908 F4200.000
G1 F1800.000 E-2.00000
G1 X59.346 Y96.169 F4200.000
G1 X56.464 Y101.782
G1 X58.417 Y107.857
G1 X61.651 Y110.201
G1 X86.034 Y118.579
G1 X110.401 Y118.983
G1 X115.224 Y118.217
G1 X138.352 Y110.199
G1 X132.521 Y102.480
G1 F1800.000 E2.00000
G1 X132.529 Y102.286 F1200.000 E0.00397
G1 X132.590 Y101.902 E0.00794
G1 X132.710 Y101.532 E0.00794
G1 X132.887 Y101.185 E0.00793
G1 X133.115 Y100.871 E0.00794
G1 X133.247 Y100.728 E0.00397
G1 X133.390 Y100.596 E0.00397
G1 X133.705 Y100.367 E0.00793
G1 X134.052 Y100.190 E0.00794
G1 X134.421 Y100.070 E0.00793
G1 X134.612 Y100.032 E0.00397
G1 X135.000 Y100.002 E0.00794
G1 X135.388 Y100.032 E0.00794
G1 X135.579 Y100.070 E0.00397
G1 X135.948 Y100.190 E0.00793
G1 X136.295 Y100.367 E0.00794
G1 X136.610 Y100.596 E0.00793
G1 X136.753 Y100.728 E0.00397
G1 X136.885 Y100.871 E0.00397
G1 X137.113 Y101.185 E0.00793
G1 X137.290 Y101.532 E0.00794
G1 X137.410 Y101.902 E0.00794
G1 X137.471 Y102.286 E0.00793
G1 X137.479 Y102.480 E0.00397
G1 X137.471 Y102.675 E0.00397
G1 X137.410 Y103.059 E0.00793
G1 X137.290 Y103.429 E0.00794
G1 X137.113 Y103.775 E0.00794
G1 X136.885 Y104.090 E0.00793
G1 X136.753 Y104.233 E0.00397
G1 X136.610 Y104.365 E0.00397
G1 X136.295 Y104.594 E0.00793
G1 X135.948 Y104.770 E0.00794
G1 X135.579 Y104.891 E0.00793
G1 X135.388 Y104.929 E0.00397
G1 X135.000 Y104.959 E0.00794
G1 X134.612 Y104.929 E0.00794
G1 X134.421 Y104.891 E0.00397
G1 X134.052 Y104.770 E0.00793
G1 X133.705 Y104.594 E0.00794
G1 X133.390 Y104.365 E0.00793
G1 X133.247 Y104.233 E0.00397
G1 X133.115 Y104.090 E0.00397
G1 X132.887 Y103.775 E0.00794
G1 X132.710 Y103.429 E0.00793
G1 X132.590 Y103.059 E0.00794
G1 X132.552 Y102.868 E0.00397
G1 X132.524 Y102.548 E0.00655
G1 X132.974 Y102.480 F4200.000
G1 X132.980 Y102.321 F1200.000 E0.00325
G1 X133.030 Y102.007 E0.00649
G1 X133.128 Y101.705 E0.00649
G1 X133.272 Y101.422 E0.00649
G1 X133.567 Y101.048 E0.00972
G1 X133.941 Y100.753 E0.00972
G1 X134.225 Y100.608 E0.00649
G1 X134.527 Y100.510 E0.00649
G1 X135.000 Y100.454 E0.00972
G1 X135.473 Y100.510 E0.00972
G1 X135.775 Y100.608 E0.00649
G1 X136.059 Y100.753 E0.00649
G1 X136.433 Y101.048 E0.00972
G1 X136.728 Y101.422 E0.00972
G1 X136.872 Y101.705 E0.00649
G1 X136.970 Y102.007 E0.00649
G1 X137.020 Y102.321 E0.00649
G1 X137.026 Y102.480 E0.00325
G1 X137.020 Y102.639 E0.00325
G1 X136.970 Y102.953 E0.00649
G1 X136.872 Y103.256 E0.00649
G1 X136.728 Y103.539 E0.00649
G1 X136.433 Y103.913 E0.00972
G1 X136.059 Y104.208 E0.00972
G1 X135.775 Y104.352 E0.00649
G1 X135.473 Y104.451 E0.00649
G1 X135.000 Y104.507 E0.00972
G1 X134.527 Y104.451 E0.00972
G1 X134.225 Y104.352 E0.00649
G1 X133.941 Y104.208 E0.00649
G1 X133.567 Y103.913 E0.00972
G1 X133.272 Y103.539 E0.00972
G1 X133.128 Y103.256 E0.00649
G1 X133.030 Y102.953 E0.00649
G1 X132.976 Y102.548 E0.00834
G1 X133.110 Y102.399 F4200.000
G1 X132.631 Y102.189
G1 X111.623 Y110.887
G1 X99.988 Y110.656
G1 X89.082 Y110.968
G1 X85.301 Y109.740
G1 X82.498 Y106.936
G1 X81.345 Y103.812
G1 X81.475 Y100.494
G1 X85.743 Y85.118
G1 X86.757 Y85.013
G1 X87.744 Y84.817 F1200.000 E0.02054
G1 X88.072 Y84.778 E0.00673
G1 X88.072 Y93.972 E0.18759
G1 X87.724 Y94.041 E0.00724
G1 X87.068 Y94.226 E0.01390
G1 X86.429 Y94.462 E0.01391
G1 X85.810 Y94.748 E0.01390
G1 X85.215 Y95.081 E0.01390
G1 X84.649 Y95.459 E0.01390
G1 X84.114 Y95.881 E0.01390
G1 X83.613 Y96.344 E0.01391
G1 X83.151 Y96.844 E0.01390
G1 X82.729 Y97.379 E0.01390
G1 X82.350 Y97.946 E0.01390
G1 X82.017 Y98.540 E0.01391
G1 X81.732 Y99.159 E0.01390
G1 X81.496 Y99.798 E0.01390
G1 X81.311 Y100.454 E0.01390
G1 X81.178 Y101.123 E0.01390
G1 X81.098 Y101.799 E0.01390
G1 X81.071 Y102.480 E0.01390
G1 X81.098 Y103.161 E0.01390
G1 X81.178 Y103.838 E0.01390
G1 X81.311 Y104.506 E0.01390
G1 X81.496 Y105.162 E0.01391
G1 X81.732 Y105.802 E0.01390
G1 X82.017 Y106.420 E0.01390
G1 X82.350 Y107.015 E0.01391
G1 X82.729 Y107.582 E0.01390
G1 X83.151 Y108.117 E0.01390
G1 X83.613 Y108.617 E0.01390
G1 X84.114 Y109.080 E0.01391
G1 X84.649 Y109.501 E0.01390
G1 X85.215 Y109.880 E0.01391
G1 X85.810 Y110.213 E0.01391
G1 X86.429 Y110.498 E0.01390
G1 X87.068 Y110.734 E0.01391
G1 X87.724 Y110.919 E0.01390
G1 X88.392 Y111.052 E0.01390
G1 X89.069 Y111.132 E0.01391
G1 X89.750 Y111.159 E0.01390
G1 X90.431 Y111.132 E0.01390
G1 X91.108 Y111.052 E0.01390
G1 X91.776 Y110.919 E0.01390
G1 X92.432 Y110.734 E0.01390
G1 X93.039 Y110.510 E0.01320
G1 X93.690 Y110.213 E0.01460
G1 X94.285 Y109.880 E0.01391
G1 X94.851 Y109.502 E0.01390
G1 X95.359 Y109.101 E0.01320
G1 X95.887 Y108.617 E0.01461
G1 X96.349 Y108.117 E0.01390
G1 X96.750 Y107.609 E0.01320
G1 X97.150 Y107.015 E0.01460
G1 X97.483 Y106.420 E0.01391
G1 X97.768 Y105.802 E0.01390
G1 X98.004 Y105.162 E0.01391
G1 X98.189 Y104.506 E0.01390
G1 X98.322 Y103.838 E0.01391
G1 X98.395 Y103.216 E0.01279
G1 X98.813 Y103.667 E0.01255
G1 X99.123 Y103.912 E0.00805
G1 X99.481 Y104.077 E0.00805
G1 X99.737 Y104.138 E0.00538
G1 X100.000 Y104.159 E0.00537
G1 X100.392 Y104.113 E0.00805
